Origami/48x48/apps/zynaddsubfx.svg

<svg width="48" height="48" version="1.1" viewBox="0 0 48 48" xmlns="http://www.w3.org/2000/svg">
 <path d="m10.041016 6.0004318a6.0006 6.0006 0 0 0 -3.5996098 10.830078l6.1210938 4.509766-7.5546875 11.332031a6.0006 6.0006 0 0 0 4.5644531 9.3125l28 2a6.0006 6.0006 0 0 0 3.86914 -10.900391l-6.666015-4.666015 7.86914-9.619141a6.0006 6.0006 0 0 0 -4.005859 -9.7656251l-28-3a6.0006 6.0006 0 0 0 -0.597656 -0.033203z" style="opacity:.2"/>
 <path d="m10.041016 5a6.0006 6.0006 0 0 0 -3.5996098 10.830078l6.1210938 4.509766-7.5546875 11.332031a6.0006 6.0006 0 0 0 4.5644531 9.3125l28 2a6.0006 6.0006 0 0 0 3.86914 -10.900391l-6.666015-4.666015 7.86914-9.619141a6.0006 6.0006 0 0 0 -4.005859 -9.7656249l-28-3a6.0006 6.0006 0 0 0 -0.597656 -0.0332031z" style="fill:#4f4f4f"/>
 <path d="m10 36.000432 8-12 20 14z" style="opacity:.2"/>
 <path d="m10 35 8-12 20 14z" style="fill:#1bd9a5"/>
 <path d="m10 12.000432 28 3-9 11z" style="opacity:.2"/>
 <path d="m10 11 28 3-9 11z" style="fill:#1cadf4"/>
 <path d="m10.041016 5a6.0006 6.0006 0 0 0 -6.0136722 6.472656 6.0006 6.0006 0 0 1 6.0136722 -5.472656 6.0006 6.0006 0 0 1 0.597656 0.0332031l28 3a6.0006 6.0006 0 0 1 5.335937 5.5019529 6.0006 6.0006 0 0 0 -5.335937 -6.5019529l-28-3a6.0006 6.0006 0 0 0 -0.597656 -0.0332031zm2.074218 16.009766l-7.1074215 10.662109a6.0006 6.0006 0 0 0 -0.9824219 3.785156 6.0006 6.0006 0 0 1 0.9824219 -2.785156l7.5546875-11.332031-0.447266-0.330078zm23.179688 6.771484l-0.519531 0.636719 6.666015 4.666015a6.0006 6.0006 0 0 1 2.53125 4.402344 6.0006 6.0006 0 0 0 -2.53125 -5.402344l-6.146484-4.302734z" style="fill:#ffffff;opacity:.1"/>
 <path d="M 18 23 L 10 35 L 10.636719 35.044922 L 18 24 L 36.408203 36.886719 L 38 37 L 18 23 z" style="fill:#ffffff;opacity:.1"/>
 <path d="m10 11l1.587891 1.169922 25.660156 2.75 0.751953-0.919922-28-3z" style="fill:#ffffff;opacity:.1"/>
</svg>

<svg xmlns="http://www.w3.org/2000/svg" width="48" height="48" version="1.1" viewBox="0 0 48 48">
 <path style="opacity:0.2" d="M 10.041016,6.0004318 A 6.0006,6.0006 0 0 0 6.4414062,16.83051 L 12.5625,21.340276 5.0078125,32.672307 a 6.0006,6.0006 0 0 0 4.5644531,9.3125 l 28.0000004,2 a 6.0006,6.0006 0 0 0 3.86914,-10.900391 l -6.666015,-4.666015 7.86914,-9.619141 A 6.0006,6.0006 0 0 0 38.638672,9.0336349 l -28,-3 a 6.0006,6.0006 0 0 0 -0.597656,-0.033203 z"/>
 <path style="fill:#4f4f4f" d="M 10.041016,5 A 6.0006,6.0006 0 0 0 6.4414062,15.830078 L 12.5625,20.339844 5.0078125,31.671875 a 6.0006,6.0006 0 0 0 4.5644531,9.3125 l 28.0000004,2 a 6.0006,6.0006 0 0 0 3.86914,-10.900391 l -6.666015,-4.666015 7.86914,-9.619141 A 6.0006,6.0006 0 0 0 38.638672,8.0332031 l -28,-3 A 6.0006,6.0006 0 0 0 10.041016,5 Z"/>
 <path style="opacity:0.2" d="m 10,36.000432 8,-12 20,14 z"/>
 <path style="fill:#1bd9a5" d="M 10,35 18,23 38,37 Z"/>
 <path style="opacity:0.2" d="m 10,12.000432 28,3 -9,11 z"/>
 <path style="fill:#1cadf4" d="m 10,11 28,3 -9,11 z"/>
 <path style="opacity:0.1;fill:#ffffff" d="M 10.041016 5 A 6.0006 6.0006 0 0 0 4.0273438 11.472656 A 6.0006 6.0006 0 0 1 10.041016 6 A 6.0006 6.0006 0 0 1 10.638672 6.0332031 L 38.638672 9.0332031 A 6.0006 6.0006 0 0 1 43.974609 14.535156 A 6.0006 6.0006 0 0 0 38.638672 8.0332031 L 10.638672 5.0332031 A 6.0006 6.0006 0 0 0 10.041016 5 z M 12.115234 21.009766 L 5.0078125 31.671875 A 6.0006 6.0006 0 0 0 4.0253906 35.457031 A 6.0006 6.0006 0 0 1 5.0078125 32.671875 L 12.5625 21.339844 L 12.115234 21.009766 z M 35.294922 27.78125 L 34.775391 28.417969 L 41.441406 33.083984 A 6.0006 6.0006 0 0 1 43.972656 37.486328 A 6.0006 6.0006 0 0 0 41.441406 32.083984 L 35.294922 27.78125 z"/>
 <path style="fill:#ffffff;opacity:0.1" d="M 18 23 L 10 35 L 10.636719 35.044922 L 18 24 L 36.408203 36.886719 L 38 37 L 18 23 z"/>
 <path style="fill:#ffffff;opacity:0.1" d="M 10 11 L 11.587891 12.169922 L 37.248047 14.919922 L 38 14 L 10 11 z"/>
</svg>
